X: 4
T: The High Reel
M: 4/4
L: 1/8
S: handwritten page from the Boston Slow Scottish Jam collection
Z: 2006 John Chambers <jc:trillian.mit.edu>
N: As played by Buddy MacMaster
N: SRSNH 7.31
Z: Trans. & arr. B.McOwen
K: AMix
|: "A"a2fa ecA2 | cAeA fAeA | a2fa ecA2 | "G"Bcdc BGGB |
|  "A"a2fa ecA2 | cdef "G"g2 (fg) | "D"afge fdec | "G"Bcdc BG GB :|
|: "A"(c/B/A) (eA) fAeA | (c/B/A) af ecA2 | (c/B/A) (eA) fAeA | "G"Bcdc BGGB |
|  "A"(c/B/A) (eA) fAed | cdef "G"g2(fg) | "D"afge fdec | "G"Bcdc BGGB :|
